X: 9190
T: Daly's Mill
R: polka
M: 2/4
K: Gmajor
|:D|GG/A/ Bd|ed BA|G>A B/c/d|ef g2|
G>A Bd|ed B/c/B/A/|GE ED|G2- G:|
|:d|ed B/c/B/d/|ed B>A|GG/A/ Bd|ef g>f|
e>d Bd|e/f/e/d/ B/c/B/A/|GE ED|G2- G:|

